img/icon-cart.svg

<svg height="68" width="68" viewBox="0 0 68 68" xmlns="http://www.w3.org/2000/svg"><path fill-rule="evenodd" clip-rule="evenodd" d="M1 2.5C1 1.39543 1.89543 0.5 3 0.5H13.6803C15.1102 0.5 16.3414 1.50926 16.622 2.91142L19.2764 16.1782H64.7871C66.6734 16.1782 68.0917 17.8983 67.7321 19.7501L62.7777 45.2625C62.4126 47.1425 60.7662 48.5 58.851 48.5H24.6568C22.7347 48.5 21.0843 47.1328 20.7267 45.2442L15.6738 18.5604L12.8605 4.5H3C1.89543 4.5 1 3.60457 1 2.5ZM20.0512 20.1782L24.6568 44.5H58.851L63.5742 20.1782H20.0512Z" /><path d="M31.5 60.5C31.5 63.2614 29.2614 65.5 26.5 65.5C23.7386 65.5 21.5 63.2614 21.5 60.5C21.5 57.7386 23.7386 55.5 26.5 55.5C29.2614 55.5 31.5 57.7386 31.5 60.5Z" /><path d="M63.5 60.5C63.5 63.2614 61.2614 65.5 58.5 65.5C55.7386 65.5 53.5 63.2614 53.5 60.5C53.5 57.7386 55.7386 55.5 58.5 55.5C61.2614 55.5 63.5 57.7386 63.5 60.5Z" /></svg>

<svg xmlns="http://www.w3.org/2000/svg" width="68" height="68"><path fill-rule="evenodd" d="M1 2.5a2 2 0 0 1 2-2h10.68a3 3 0 0 1 2.942 2.411l2.654 13.267h45.511a3 3 0 0 1 2.945 3.572l-4.954 25.513A4 4 0 0 1 58.85 48.5H24.657a4 4 0 0 1-3.93-3.256L15.674 18.56 12.86 4.5H3a2 2 0 0 1-2-2m19.051 17.678L24.657 44.5H58.85l4.723-24.322z" clip-rule="evenodd"/><path d="M31.5 60.5a5 5 0 1 1-10 0 5 5 0 0 1 10 0M63.5 60.5a5 5 0 1 1-10 0 5 5 0 0 1 10 0"/></svg>
